lib/preview/nrk-logo-preview-nrk-sami-radio-with-bg.svg

<svg width="133" height="24" viewBox="0 0 133 24" fill="none" xmlns="http://www.w3.org/2000/svg">
<rect width="133" height="24" fill="#114F9D"/>
<path d="M6.00427 18V6.00109H9.94146V18H6.00427ZM15.2981 7.91078L17.5623 18H13.2534L10.5498 6.00109H12.9664C13.5206 5.9939 14.0583 6.18925 14.4788 6.55039C14.8999 6.89638 15.1892 7.3767 15.2981 7.91078ZM18.1538 18V6.00109H22.091V18H18.1538ZM25.0647 10.5641C24.6405 10.5682 24.223 10.4572 23.8568 10.243C23.4955 10.0341 23.1954 9.73396 22.9865 9.3726C22.7721 9.00633 22.661 8.58876 22.6652 8.16432C22.6604 7.74246 22.7715 7.32738 22.9865 6.96443C23.1976 6.60699 23.4974 6.31009 23.8568 6.10252C24.2231 5.8885 24.6405 5.77751 25.0647 5.78138C25.4865 5.77684 25.9014 5.88793 26.2645 6.10252C26.6203 6.31191 26.9169 6.60856 27.1263 6.96443C27.3411 7.32748 27.4522 7.74249 27.4476 8.16432C27.4515 8.58873 27.3405 9.00623 27.1263 9.3726C26.9191 9.73238 26.6222 10.0323 26.2645 10.243C25.9014 10.458 25.4862 10.5691 25.0642 10.5641H25.0647ZM28.0559 18V6.00109H31.9934V18H28.0559ZM36.978 12.5582C36.9891 12.5699 37.0735 12.7079 37.2314 12.9723C37.3893 13.2367 37.5949 13.5747 37.8482 13.9863C38.1017 14.3977 38.3692 14.8343 38.6506 15.296C38.932 15.7577 39.1969 16.1944 39.4451 16.6058C39.6924 17.0172 39.974 17.4819 40.29 18H35.9641C35.6936 17.5606 35.4484 17.1635 35.2287 16.8086C35.0091 16.4537 34.7756 16.0706 34.5281 15.6594C34.2801 15.2485 34.0349 14.8485 33.7925 14.4595C33.5501 14.0704 33.3418 13.7296 33.1675 13.4371C32.9925 13.1443 32.8713 12.9471 32.8039 12.8455C32.6368 12.5934 32.5379 12.3023 32.5169 12.0005C32.5337 11.7109 32.6269 11.431 32.787 11.1891C32.8546 11.0764 32.9786 10.8764 33.1588 10.5891C33.339 10.3018 33.5503 9.96105 33.7925 9.56672C34.0347 9.17239 34.2799 8.7696 34.5281 8.35837C34.7763 7.94715 35.0098 7.56124 35.2287 7.20071C35.4488 6.84055 35.6939 6.44059 35.9641 6.00081H40.29L36.9439 11.4595C36.8404 11.6216 36.782 11.8083 36.7749 12.0005C36.786 12.2023 36.8565 12.3963 36.9774 12.5582H36.978Z" fill="white"/>
<path d="M52.2916 12.4316C52.0433 12.1785 51.7551 11.968 51.4385 11.8086C51.1067 11.6406 50.7614 11.5006 50.4063 11.3901C50.0421 11.2763 49.6668 11.1796 49.2803 11.0999C48.9842 11.0319 48.7083 10.9637 48.4528 10.8954C48.2179 10.8348 47.9894 10.7518 47.7704 10.6476C47.582 10.5584 47.4069 10.4435 47.25 10.3063C47.1023 10.1762 46.9882 10.0123 46.9173 9.82863C46.8384 9.61274 46.8008 9.38394 46.8064 9.15414C46.8024 8.91629 46.8399 8.67956 46.9173 8.45462C46.9871 8.25584 47.1042 8.07706 47.2585 7.93375C47.4183 7.78765 47.5995 7.66678 47.7957 7.57531C48.0206 7.47299 48.2592 7.40399 48.504 7.37049C48.795 7.32924 49.0887 7.30937 49.3826 7.31103C49.6505 7.31142 49.9181 7.32556 50.1845 7.35342C50.4539 7.38156 50.7216 7.42439 50.9864 7.48172C51.2436 7.53731 51.4971 7.60856 51.7456 7.69508C51.9783 7.77519 52.2038 7.87503 52.4195 7.99349L52.6584 6.49175C52.4158 6.36507 52.1615 6.26218 51.8991 6.18452C51.6319 6.10486 51.3617 6.0365 51.0887 5.97941C50.8125 5.92228 50.5335 5.87964 50.2528 5.85168C49.9684 5.82324 49.6784 5.80892 49.3826 5.80873C48.7793 5.80211 48.1775 5.87092 47.5912 6.01355C47.0919 6.134 46.62 6.34842 46.2007 6.64537C45.8144 6.92272 45.5035 7.29226 45.2962 7.72039C45.0756 8.20174 44.9677 8.72716 44.9809 9.25655C44.9713 9.66633 45.0377 10.0743 45.1768 10.4599C45.2995 10.7829 45.4885 11.0766 45.7316 11.3221C45.972 11.5624 46.2483 11.7639 46.5505 11.9195C46.8708 12.0845 47.2046 12.2216 47.5483 12.3294C47.9069 12.4432 48.2738 12.54 48.6487 12.6196C48.9562 12.6877 49.2406 12.7588 49.5018 12.833C49.7452 12.9 49.9823 12.9885 50.2101 13.0975C50.4058 13.1899 50.5868 13.3107 50.7472 13.456C50.8997 13.5992 51.0192 13.7739 51.0973 13.968C51.1878 14.2019 51.2313 14.4513 51.2252 14.702C51.2297 14.9685 51.1894 15.2339 51.1058 15.4871C51.0309 15.7061 50.9151 15.9088 50.7646 16.0845C50.6131 16.2575 50.4271 16.3968 50.2186 16.4936C49.9829 16.6021 49.733 16.6769 49.4765 16.7157C49.1632 16.7638 48.8465 16.7867 48.5296 16.784C48.2215 16.7833 47.9138 16.7633 47.6083 16.7243C47.2894 16.6845 46.971 16.6304 46.6529 16.5621C46.3348 16.4939 46.0247 16.4113 45.7228 16.3144C45.4215 16.2182 45.1344 16.1187 44.8615 16.0159L45.083 17.7057C45.3739 17.8144 45.6701 17.9083 45.9704 17.9871C46.243 18.0586 46.5192 18.1156 46.7979 18.1577C47.0648 18.1976 47.3321 18.2289 47.5998 18.2516C47.8674 18.2744 48.1376 18.2858 48.4102 18.2858C49.0209 18.2896 49.6301 18.2266 50.2272 18.098C50.7558 17.9872 51.2591 17.7788 51.7115 17.4835C52.1335 17.2041 52.4746 16.8185 52.7007 16.3656C52.9501 15.8291 53.07 15.2415 53.0508 14.6502C53.0601 14.2096 52.9936 13.7707 52.8543 13.3527C52.7356 13.0084 52.5436 12.6943 52.2916 12.4316Z" fill="#9FDAF5"/>
<path d="M62.5026 17.0227C62.3779 17.0342 62.2523 17.0154 62.1364 16.9678C62.0205 16.9203 61.9179 16.8454 61.8372 16.7496C61.679 16.4762 61.6132 16.1591 61.6495 15.8453L61.6836 12.3289C61.6874 11.9603 61.6415 11.5928 61.5472 11.2365C61.4643 10.924 61.3256 10.6291 61.1377 10.366C60.948 10.1087 60.7068 9.89366 60.4297 9.73448C60.1077 9.55164 59.7596 9.41925 59.3975 9.34191C58.9547 9.24622 58.5026 9.20042 58.0496 9.20536C57.6903 9.2052 57.3313 9.22801 56.9748 9.27364C56.638 9.31603 56.3045 9.38162 55.9767 9.46992C55.6727 9.55242 55.3737 9.65215 55.081 9.76862L54.8763 11.2194C55.1606 11.117 55.4309 11.0317 55.687 10.9634C55.9431 10.8951 56.1904 10.8382 56.4288 10.7927C56.6629 10.748 56.8993 10.7166 57.1369 10.6989C57.3698 10.6818 57.6002 10.6732 57.8278 10.6732C58.1757 10.6659 58.523 10.7061 58.86 10.7927C59.106 10.8542 59.3321 10.9776 59.5169 11.1512C59.6815 11.32 59.7991 11.5288 59.8581 11.7571C59.9309 12.0386 59.9653 12.3286 59.9605 12.6193L59.9585 13.046L57.9643 13.1809C57.2822 13.2 56.6102 13.3507 55.9853 13.6247C55.5176 13.8295 55.1138 14.1568 54.8166 14.572C54.5644 14.9415 54.4305 15.3791 54.4327 15.8265C54.4295 16.2463 54.5322 16.6602 54.7313 17.0298C54.94 17.4095 55.254 17.7207 55.6355 17.9259C56.1009 18.1681 56.6211 18.2857 57.1454 18.2673C57.6367 18.2786 58.1257 18.1975 58.5871 18.0283C58.986 17.8723 59.351 17.6404 59.6619 17.3456C59.7799 17.2323 59.8919 17.113 59.9974 16.988C60.0308 17.1647 60.0932 17.3347 60.1823 17.491C60.3344 17.7522 60.5682 17.9561 60.8477 18.0713C61.1566 18.1954 61.4873 18.2564 61.8201 18.2505C61.9225 18.2505 62.022 18.2474 62.1187 18.2417C62.2137 18.2362 62.3079 18.2219 62.4002 18.199C62.4912 18.1763 62.5734 18.1563 62.6476 18.1393C62.7144 18.1243 62.78 18.1044 62.8438 18.0795L63.0315 16.9359C62.9373 16.9684 62.8401 16.9913 62.7414 17.0045C62.6622 17.015 62.5825 17.0206 62.5026 17.0213M59.6619 16.2532C59.477 16.3995 59.2768 16.5254 59.0648 16.6287C58.8537 16.7314 58.6301 16.8061 58.3997 16.8509C58.1606 16.8968 57.9177 16.9196 57.6743 16.9189C57.3962 16.9268 57.1198 16.8744 56.8639 16.7653C56.6558 16.675 56.4802 16.5232 56.3606 16.3303C56.2424 16.1256 56.1834 15.8921 56.19 15.6558C56.1735 15.3713 56.2515 15.0892 56.4118 14.8536C56.5975 14.6367 56.8492 14.4868 57.1283 14.4269C57.5643 14.3244 58.0117 14.2786 58.4594 14.2906H59.9531L59.9454 15.9844C59.8585 16.082 59.7634 16.172 59.6611 16.2532" fill="#9FDAF5"/>
<path d="M60.745 5.14307H58.9024L57.4523 8.19832H58.783L60.745 5.14307Z" fill="#9FDAF5"/>
<path d="M76.4406 9.56379C75.9755 9.31106 75.4512 9.18731 74.9222 9.20535C74.463 9.20412 74.0071 9.28207 73.5744 9.43578C73.135 9.59328 72.7211 9.8147 72.3463 10.0929C72.1335 10.2503 71.9312 10.4214 71.7406 10.605C71.5658 10.1776 71.2574 9.81839 70.8617 9.58086C70.3908 9.32687 69.8608 9.20314 69.3262 9.22242C68.87 9.22262 68.4172 9.30054 67.9872 9.45285C67.5456 9.60816 67.1289 9.82663 66.7499 10.1014C66.6274 10.1899 66.5085 10.2858 66.3917 10.3859V9.22242L64.6514 9.47845V18.098H66.3917V11.6057C66.5967 11.4715 66.8104 11.351 67.0314 11.245C67.3021 11.1171 67.5851 11.0171 67.876 10.9463C68.1441 10.8801 68.419 10.8457 68.6952 10.8439C68.9486 10.8363 69.2009 10.8799 69.4371 10.9719C69.6326 11.0548 69.8054 11.1836 69.9406 11.3474C70.0887 11.5378 70.1908 11.7597 70.2389 11.996C70.3056 12.3015 70.3371 12.6136 70.333 12.9263V18.098H72.0733V12.5678C72.0743 12.2413 72.0523 11.9152 72.0073 11.5918C72.2045 11.4621 72.4088 11.3435 72.6192 11.2365C72.8852 11.1025 73.1656 10.9994 73.4549 10.9293C73.7286 10.8623 74.0092 10.8279 74.2909 10.8269C74.5416 10.8208 74.791 10.8643 75.0248 10.9549C75.2237 11.036 75.3995 11.165 75.5367 11.3304C75.685 11.5206 75.7872 11.7426 75.8352 11.979C75.9018 12.2845 75.9333 12.5966 75.9291 12.9092V18.098H77.6693V12.5508C77.6913 11.9053 77.5869 11.2617 77.3622 10.6562C77.1853 10.1996 76.8607 9.81513 76.4406 9.56379Z" fill="#9FDAF5"/>
<path d="M80.2461 18.0983H81.9863V9.22271L80.2461 9.47874V18.0983Z" fill="#9FDAF5"/>
<path d="M81.7381 5.64659C81.5611 5.53835 81.3572 5.48215 81.1498 5.48444C80.9397 5.48282 80.7331 5.5389 80.5526 5.64659C80.3748 5.75077 80.2254 5.89736 80.1179 6.0733C80.0095 6.2504 79.9532 6.4545 79.9555 6.66216C79.9552 6.87052 80.0104 7.07521 80.1153 7.25519C80.2203 7.43517 80.3712 7.58395 80.5526 7.68627C80.7349 7.78873 80.9407 7.84169 81.1498 7.83988C81.3561 7.84234 81.5593 7.78929 81.7381 7.68627C81.9137 7.58468 82.0583 7.43717 82.1564 7.25955C82.2588 7.07722 82.3117 6.87128 82.3099 6.66216C82.3123 6.45567 82.2592 6.25233 82.1564 6.0733C82.0549 5.89823 81.9111 5.7515 81.7381 5.64659Z" fill="#9FDAF5"/>
<path d="M92.2389 9.33338C91.9198 9.41893 91.6151 9.55122 91.3347 9.72595C91.0436 9.90767 90.7745 10.1225 90.5328 10.366C90.4924 10.4064 90.4535 10.4514 90.4134 10.4937V9.22243L88.6731 9.47846V18.098H90.4134V11.6496C90.5456 11.5585 90.679 11.4732 90.8143 11.3987C90.9851 11.3046 91.1618 11.2219 91.3435 11.1512C91.5196 11.0829 91.6986 11.0232 91.8806 10.9719C92.0679 10.9199 92.259 10.8828 92.4522 10.861C92.6589 10.8383 92.8672 10.8326 93.0749 10.8439L93.2796 9.2395C92.9299 9.21437 92.5785 9.24607 92.2389 9.33338Z" fill="#9FDAF5"/>
<path d="M102.032 17.0227C101.908 17.0342 101.782 17.0154 101.666 16.9678C101.55 16.9203 101.448 16.8454 101.367 16.7496C101.209 16.4762 101.143 16.1591 101.179 15.8453L101.213 12.3289C101.217 11.9603 101.171 11.5928 101.077 11.2365C100.994 10.924 100.855 10.6291 100.667 10.366C100.478 10.1087 100.237 9.89366 99.9594 9.73448C99.6374 9.55164 99.2892 9.41925 98.9272 9.34191C98.4844 9.24622 98.0323 9.20042 97.5793 9.20536C97.22 9.2052 96.8609 9.22801 96.5045 9.27364C96.1677 9.31603 95.8342 9.38162 95.5064 9.46992C95.2024 9.55242 94.9034 9.65215 94.6107 9.76862L94.406 11.2194C94.6903 11.117 94.9605 11.0317 95.2167 10.9634C95.4728 10.8951 95.7201 10.8382 95.9585 10.7927C96.1926 10.748 96.429 10.7166 96.6666 10.6989C96.8995 10.6818 97.1299 10.6732 97.3575 10.6732C97.7054 10.6659 98.0527 10.7061 98.3897 10.7927C98.6357 10.8542 98.8618 10.9776 99.0466 11.1512C99.2112 11.3199 99.3288 11.5288 99.3878 11.7571C99.4606 12.0386 99.495 12.3286 99.4902 12.6193L99.4882 13.046L97.494 13.1809C96.8119 13.2 96.1399 13.3507 95.5149 13.6247C95.0473 13.8295 94.6435 14.1568 94.3462 14.572C94.0941 14.9415 93.9602 15.3791 93.9624 15.8265C93.9592 16.2463 94.0619 16.6602 94.2609 17.0298C94.4697 17.4095 94.7837 17.7207 95.1652 17.9259C95.6306 18.1681 96.1508 18.2857 96.6751 18.2673C97.1664 18.2786 97.6554 18.1975 98.1168 18.0283C98.5157 17.8723 98.8807 17.6404 99.1916 17.3456C99.3096 17.2323 99.4216 17.113 99.5271 16.988C99.5604 17.1647 99.6229 17.3347 99.712 17.491C99.8641 17.7522 100.098 17.9561 100.377 18.0713C100.686 18.1954 101.017 18.2564 101.35 18.2505C101.452 18.2505 101.552 18.2474 101.648 18.2417C101.743 18.2362 101.838 18.2219 101.93 18.199C102.021 18.1763 102.103 18.1563 102.177 18.1393C102.244 18.1243 102.31 18.1044 102.373 18.0795L102.561 16.9359C102.467 16.9684 102.37 16.9913 102.271 17.0045C102.192 17.015 102.112 17.0206 102.032 17.0213M99.1916 16.2532C99.0067 16.3995 98.8065 16.5254 98.5945 16.6287C98.3834 16.7314 98.1598 16.8061 97.9294 16.8509C97.6903 16.8968 97.4474 16.9196 97.204 16.9189C96.9259 16.9268 96.6495 16.8744 96.3936 16.7653C96.1854 16.675 96.0098 16.5232 95.8903 16.3303C95.7721 16.1256 95.7131 15.8921 95.7197 15.6558C95.7032 15.3713 95.7812 15.0892 95.9415 14.8536C96.1272 14.6367 96.3789 14.4868 96.658 14.4269C97.094 14.3244 97.5414 14.2786 97.9891 14.2906H99.4828L99.4751 15.9844C99.3882 16.082 99.2931 16.172 99.1907 16.2532" fill="#9FDAF5"/>
<path d="M110.103 9.61983C110.086 9.613 110.069 9.60475 110.052 9.59821C109.733 9.47783 109.405 9.38355 109.071 9.3163C108.68 9.23949 108.283 9.20242 107.885 9.20564C107.127 9.19981 106.382 9.40096 105.729 9.78743C105.077 10.1739 104.542 10.7311 104.183 11.3989C103.763 12.2005 103.557 13.097 103.586 14.0016C103.566 14.7826 103.721 15.5581 104.038 16.272C104.315 16.8815 104.766 17.3952 105.335 17.7481C105.946 18.1082 106.647 18.2887 107.356 18.2687C107.792 18.2712 108.225 18.2138 108.645 18.098C109.063 17.9778 109.462 17.7997 109.83 17.5689C109.958 17.4898 110.086 17.4016 110.213 17.3089L110.428 18.098H111.844V5.22841L110.103 5.46736L110.103 9.61983ZM109.19 16.6389C108.801 16.7921 108.388 16.8759 107.97 16.8864C107.483 16.9007 107 16.7857 106.571 16.5533C106.172 16.3175 105.861 15.958 105.684 15.5292C105.463 14.9793 105.358 14.3893 105.377 13.7968C105.357 13.1897 105.474 12.5859 105.718 12.0299C105.927 11.5789 106.269 11.2034 106.699 10.9549C107.167 10.6999 107.694 10.5732 108.226 10.5876C108.5 10.587 108.774 10.607 109.045 10.6474C109.314 10.689 109.579 10.7519 109.839 10.8354C109.922 10.8618 110.014 10.8971 110.103 10.9296V16.1903C109.813 16.3671 109.507 16.5173 109.19 16.6389Z" fill="#9FDAF5"/>
<path d="M115.996 5.64659C115.819 5.53835 115.616 5.48215 115.408 5.48444C115.198 5.48282 114.991 5.5389 114.811 5.64659C114.633 5.75076 114.484 5.89735 114.376 6.0733C114.268 6.2504 114.212 6.4545 114.214 6.66216C114.214 6.87052 114.269 7.07521 114.374 7.25519C114.479 7.43517 114.63 7.58395 114.811 7.68627C114.993 7.78873 115.199 7.84169 115.408 7.83988C115.614 7.84234 115.818 7.78929 115.996 7.68627C116.172 7.58468 116.317 7.43717 116.415 7.25955C116.517 7.07722 116.57 6.87128 116.568 6.66216C116.571 6.45567 116.518 6.25233 116.415 6.0733C116.313 5.89823 116.169 5.7515 115.996 5.64659Z" fill="#9FDAF5"/>
<path d="M114.504 18.0983H116.244V9.22271L114.504 9.47874V18.0983Z" fill="#9FDAF5"/>
<path d="M126.617 11.2962C126.277 10.6435 125.752 10.1061 125.107 9.75155C124.386 9.38953 123.591 9.20242 122.785 9.20538C121.978 9.20835 121.184 9.40131 120.466 9.76862C119.807 10.1377 119.268 10.6888 118.914 11.356C118.529 12.1046 118.338 12.9381 118.359 13.7797C118.338 14.6147 118.516 15.4429 118.88 16.1949C119.206 16.8513 119.728 17.3907 120.372 17.7396C121.066 18.1035 121.841 18.2855 122.625 18.2687C123.445 18.285 124.255 18.0911 124.979 17.7054C125.655 17.3365 126.209 16.7791 126.574 16.101C126.97 15.3436 127.167 14.4977 127.146 13.6432C127.165 12.8293 126.983 12.0232 126.617 11.2962ZM125.004 15.4695C124.813 15.9132 124.488 16.2861 124.075 16.5363C123.66 16.7739 123.188 16.8948 122.71 16.8862C122.241 16.8978 121.779 16.7733 121.379 16.5277C120.984 16.2648 120.675 15.8906 120.492 15.4524C120.26 14.8903 120.15 14.2852 120.169 13.6773C120.149 13.0857 120.26 12.4971 120.493 11.9534C120.685 11.526 121.003 11.1683 121.406 10.9293C121.837 10.6921 122.323 10.5743 122.814 10.5879C123.197 10.5784 123.578 10.6511 123.931 10.8013C124.24 10.9409 124.51 11.1549 124.716 11.4243C124.936 11.717 125.096 12.0506 125.185 12.4057C125.292 12.821 125.343 13.2485 125.339 13.6773C125.359 14.2917 125.245 14.9032 125.006 15.4695" fill="#9FDAF5"/>
</svg>

<svg xmlns="http://www.w3.org/2000/svg" viewBox="0 0 133 24"><path fill="#114F9D" d="M0 0h133v24H0z"/><path fill="#fff" d="M6.004 18V6.001h3.937V18H6.004Zm9.294-10.09L17.562 18h-4.309L10.55 6.001h2.416a2.276 2.276 0 0 1 1.513.55c.42.345.71.826.82 1.36ZM18.154 18V6.001h3.937V18h-3.937Zm6.91-7.436a2.383 2.383 0 0 1-2.4-2.4 2.303 2.303 0 0 1 .323-1.2 2.411 2.411 0 0 1 3.278-.861c.355.209.652.506.861.861.215.363.326.778.322 1.2a2.4 2.4 0 0 1-1.183 2.079 2.302 2.302 0 0 1-1.2.321ZM28.057 18V6.001h3.937V18h-3.937Zm8.922-5.442c.011.012.096.15.253.414.158.265.364.603.617 1.014a315.936 315.936 0 0 1 1.597 2.62c.247.411.529.876.845 1.394h-4.326c-.27-.44-.516-.837-.735-1.191-.22-.355-.453-.738-.7-1.15-.249-.41-.494-.81-.737-1.2-.242-.389-.45-.73-.625-1.022-.175-.293-.296-.49-.363-.591a1.75 1.75 0 0 1-.287-.845c.017-.29.11-.57.27-.812.068-.113.192-.313.372-.6s.391-.628.633-1.022c.243-.395.488-.797.736-1.209l.7-1.157.736-1.2h4.326l-3.346 5.458a1.08 1.08 0 0 0-.17.542c.012.201.082.395.203.557h.001Z"/><path fill="#9FDAF5" d="M52.292 12.432a3.23 3.23 0 0 0-.854-.623 6.677 6.677 0 0 0-1.032-.419c-.364-.114-.74-.21-1.126-.29a24.116 24.116 0 0 1-.827-.205 3.794 3.794 0 0 1-.683-.247 2.26 2.26 0 0 1-.52-.342 1.224 1.224 0 0 1-.333-.477 1.835 1.835 0 0 1-.11-.675 2.044 2.044 0 0 1 .11-.7c.07-.198.187-.377.341-.52a2.13 2.13 0 0 1 .538-.359c.225-.102.463-.171.708-.205.291-.04.585-.06.879-.059a7.818 7.818 0 0 1 1.603.17c.258.056.511.128.76.214.232.08.458.18.673.298l.24-1.501a4.24 4.24 0 0 0-.76-.307 10 10 0 0 0-.81-.206 8.081 8.081 0 0 0-.836-.127 8.797 8.797 0 0 0-.87-.043 7.242 7.242 0 0 0-1.792.205c-.5.12-.971.334-1.39.631a2.855 2.855 0 0 0-.905 1.075 3.48 3.48 0 0 0-.315 1.537c-.01.41.057.817.196 1.203.123.323.312.617.555.862.24.24.516.442.819.598.32.165.654.302.997.41.359.113.726.21 1.1.29.308.068.593.139.854.213.243.067.48.155.708.264.196.093.377.214.537.359.153.143.272.318.35.512.09.234.134.483.128.734.005.267-.036.532-.12.785-.074.22-.19.422-.34.597a1.648 1.648 0 0 1-.546.41 2.763 2.763 0 0 1-.742.222c-.314.048-.63.07-.947.068-.309 0-.616-.02-.922-.06-.319-.04-.637-.094-.955-.162a9.686 9.686 0 0 1-.93-.248 17.824 17.824 0 0 1-.861-.298l.221 1.69c.29.108.587.202.887.281.273.072.55.129.828.17.267.04.534.072.802.095.267.022.538.034.81.034.61.004 1.22-.06 1.817-.188a4.347 4.347 0 0 0 1.485-.614c.421-.28.763-.666.989-1.118.25-.537.369-1.124.35-1.716.01-.44-.057-.88-.197-1.297a2.514 2.514 0 0 0-.562-.921ZM62.503 17.023a.776.776 0 0 1-.666-.273 1.469 1.469 0 0 1-.188-.905l.035-3.516a4.105 4.105 0 0 0-.137-1.093 2.68 2.68 0 0 0-.41-.87 2.308 2.308 0 0 0-.707-.632 3.623 3.623 0 0 0-1.032-.392 6.068 6.068 0 0 0-1.348-.137c-.36 0-.719.023-1.075.069-.337.042-.67.108-.998.196a8.307 8.307 0 0 0-.896.299l-.205 1.45a10.021 10.021 0 0 1 1.553-.426c.234-.045.47-.076.708-.094.233-.017.463-.026.69-.026.349-.007.696.033 1.033.12.246.061.472.185.657.358.164.169.282.378.341.606.073.282.107.572.103.862l-.002.427-1.995.135c-.682.019-1.354.17-1.979.444a2.837 2.837 0 0 0-1.168.947c-.253.37-.386.807-.384 1.255-.004.42.1.833.298 1.203.209.38.523.69.904.896.466.242.986.36 1.51.341.492.012.98-.07 1.442-.239a3.32 3.32 0 0 0 1.075-.682c.118-.114.23-.233.335-.358.034.177.096.347.185.503.152.261.386.465.666.58.309.124.64.185.972.18.102 0 .202-.004.299-.01.095-.005.189-.02.281-.042.091-.023.173-.043.248-.06.066-.015.132-.035.196-.06l.188-1.143a1.498 1.498 0 0 1-.29.069c-.08.01-.16.016-.24.016m-2.84-.768a3.272 3.272 0 0 1-.597.376 2.697 2.697 0 0 1-.665.222 3.79 3.79 0 0 1-.726.068 1.927 1.927 0 0 1-.81-.154 1.114 1.114 0 0 1-.503-.435 1.277 1.277 0 0 1-.171-.674 1.293 1.293 0 0 1 .222-.802c.185-.217.437-.367.716-.427a5.207 5.207 0 0 1 1.331-.136h1.494l-.008 1.693a2.272 2.272 0 0 1-.284.27M60.745 5.143h-1.843l-1.45 3.055h1.331l1.962-3.055ZM76.44 9.564a2.968 2.968 0 0 0-1.518-.359 3.994 3.994 0 0 0-1.348.23 4.75 4.75 0 0 0-1.228.658 6.113 6.113 0 0 0-.605.512 2.139 2.139 0 0 0-.88-1.024c-.47-.254-1-.378-1.535-.359-.456 0-.909.079-1.339.23a4.849 4.849 0 0 0-1.595.934V9.222l-1.74.256v8.62h1.74v-6.492a5.55 5.55 0 0 1 .64-.361c.27-.128.553-.228.844-.299.268-.066.543-.1.82-.102.253-.008.505.036.741.128.196.083.368.212.504.375.148.19.25.413.298.649.067.306.098.618.094.93v5.172h1.74v-5.53a6.927 6.927 0 0 0-.066-.976 6.36 6.36 0 0 1 .612-.356c.266-.134.547-.237.836-.307a3.57 3.57 0 0 1 .836-.102c.25-.006.5.037.734.128.199.081.374.21.512.375.148.19.25.413.298.649.067.306.098.618.094.93v5.189h1.74v-5.547a4.96 4.96 0 0 0-.307-1.895 2.2 2.2 0 0 0-.921-1.092ZM80.246 18.098h1.74V9.223l-1.74.256v8.62ZM81.738 5.647a1.104 1.104 0 0 0-.588-.163 1.148 1.148 0 0 0-.597.163 1.25 1.25 0 0 0-.435.426 1.105 1.105 0 0 0-.162.59A1.174 1.174 0 0 0 81.15 7.84c.206.002.41-.05.588-.154.176-.101.32-.249.418-.426.103-.183.156-.389.154-.598.002-.206-.05-.41-.154-.589a1.207 1.207 0 0 0-.418-.426ZM92.239 9.333a3.35 3.35 0 0 0-.904.393 4.45 4.45 0 0 0-.802.64c-.04.04-.08.085-.12.128V9.222l-1.74.256v8.62h1.74V11.65a4.412 4.412 0 0 1 .93-.498c.177-.07.356-.129.538-.18a3.678 3.678 0 0 1 1.194-.128l.205-1.604a3.245 3.245 0 0 0-1.041.093ZM102.032 17.023a.777.777 0 0 1-.665-.273 1.472 1.472 0 0 1-.188-.905l.034-3.516a4.108 4.108 0 0 0-.136-1.093 2.681 2.681 0 0 0-.41-.87 2.293 2.293 0 0 0-.708-.632 3.624 3.624 0 0 0-1.032-.392 6.068 6.068 0 0 0-1.348-.137c-.359 0-.718.023-1.075.069-.336.042-.67.108-.998.196a8.307 8.307 0 0 0-.895.299l-.205 1.45a10.009 10.009 0 0 1 1.552-.426c.235-.045.471-.076.709-.094.233-.017.463-.026.69-.026.348-.007.696.033 1.033.12.246.061.472.185.657.358.164.169.282.378.34.606.074.282.108.572.103.862l-.002.427-1.994.135c-.682.019-1.354.17-1.98.444a2.838 2.838 0 0 0-1.168.947c-.252.37-.386.807-.384 1.255-.003.42.1.833.299 1.203.209.38.523.69.904.896.466.242.986.36 1.51.341.491.012.98-.07 1.442-.239a3.32 3.32 0 0 0 1.075-.682c.118-.114.23-.233.335-.358.033.177.096.347.185.503.152.261.386.465.665.58.309.124.64.185.973.18.102 0 .202-.004.298-.01.095-.005.19-.02.282-.042l.247-.06c.067-.015.133-.035.196-.06l.188-1.143a1.489 1.489 0 0 1-.29.069c-.079.01-.159.016-.239.016m-2.84-.768a3.272 3.272 0 0 1-.597.376 2.697 2.697 0 0 1-.666.222 3.79 3.79 0 0 1-.725.068 1.927 1.927 0 0 1-.81-.154 1.113 1.113 0 0 1-.504-.435 1.277 1.277 0 0 1-.17-.674 1.293 1.293 0 0 1 .222-.802c.185-.217.437-.367.716-.427a5.207 5.207 0 0 1 1.331-.136h1.494l-.008 1.693a2.266 2.266 0 0 1-.284.27M110.103 9.62l-.051-.022a5.902 5.902 0 0 0-2.167-.393 4.17 4.17 0 0 0-3.702 2.194 5.246 5.246 0 0 0-.597 2.603c-.02.78.135 1.556.452 2.27.277.61.728 1.123 1.297 1.476.611.36 1.312.54 2.021.52.436.003.869-.054 1.289-.17.418-.12.817-.298 1.185-.53.128-.078.256-.166.383-.26l.215.79h1.416V5.228l-1.741.24V9.62Zm-.913 7.019a3.575 3.575 0 0 1-1.22.247c-.487.015-.97-.1-1.399-.333a2.135 2.135 0 0 1-.887-1.024 4.279 4.279 0 0 1-.307-1.732c-.02-.607.097-1.211.341-1.767.209-.451.551-.827.981-1.075a3.021 3.021 0 0 1 1.527-.367 5.188 5.188 0 0 1 1.613.248c.083.026.175.061.264.094v5.26c-.29.177-.596.327-.913.449ZM115.996 5.647a1.102 1.102 0 0 0-.588-.163 1.147 1.147 0 0 0-.597.163c-.178.104-.327.25-.435.426a1.11 1.11 0 0 0-.162.59 1.177 1.177 0 0 0 1.194 1.177c.206.002.41-.05.588-.154.176-.101.321-.249.419-.426a1.2 1.2 0 0 0 .153-.598c.003-.206-.05-.41-.153-.589a1.213 1.213 0 0 0-.419-.426ZM114.504 18.098h1.74V9.223l-1.74.256v8.62ZM126.617 11.296a3.727 3.727 0 0 0-1.51-1.544 5.131 5.131 0 0 0-4.641.017c-.659.369-1.198.92-1.552 1.587a5.026 5.026 0 0 0-.555 2.424 5.24 5.24 0 0 0 .521 2.415 3.558 3.558 0 0 0 1.492 1.545 4.637 4.637 0 0 0 2.253.529c.82.016 1.63-.178 2.354-.564a3.972 3.972 0 0 0 1.595-1.604 5.038 5.038 0 0 0 .572-2.458 4.962 4.962 0 0 0-.529-2.347Zm-1.613 4.174a2.32 2.32 0 0 1-.929 1.066 2.652 2.652 0 0 1-1.365.35 2.428 2.428 0 0 1-1.331-.358 2.406 2.406 0 0 1-.887-1.076 4.3 4.3 0 0 1-.323-1.775c-.02-.591.091-1.18.324-1.724.192-.427.51-.785.913-1.024a2.762 2.762 0 0 1 1.408-.341c.383-.01.764.063 1.117.213.309.14.579.354.785.623.22.293.38.627.469.982.107.415.158.842.154 1.271a4.254 4.254 0 0 1-.333 1.793"/></svg>
